lib/logo_updates/nrk-logo-nrk-mp3-with-bg.svg

<svg width="358" height="84" viewBox="0 0 358 84" fill="none" xmlns="http://www.w3.org/2000/svg">
<rect width="358" height="84" fill="#1767CE"/>
<path d="M20 63V21.0038H33.7802V63H20ZM52.5283 27.6877L60.4532 63H45.3721L35.9092 21.0038H44.3676C46.3072 20.9786 48.1892 21.6624 49.6607 22.9264C51.1347 24.1373 52.1473 25.8184 52.5283 27.6877ZM62.5233 63V21.0038H76.3035V63H62.5233ZM86.7116 36.9743C85.2267 36.9888 83.7656 36.6003 82.4839 35.8504C81.2193 35.1194 80.1688 34.0689 79.438 32.8041C78.6872 31.5222 78.2986 30.0607 78.3134 28.5751C78.2964 27.0986 78.6853 25.6458 79.438 24.3755C80.1766 23.1245 81.2259 22.0853 82.4839 21.3588C83.766 20.6098 85.2269 20.2213 86.7116 20.2348C88.1877 20.2189 89.6399 20.6078 90.9108 21.3588C92.1562 22.0917 93.1943 23.13 93.9271 24.3755C94.6789 25.6462 95.0677 27.0987 95.0517 28.5751C95.0655 30.0605 94.6769 31.5218 93.9271 32.8041C93.202 34.0633 92.1627 35.113 90.9108 35.8504C89.6398 36.6029 88.1866 36.9918 86.7097 36.9743H86.7116ZM97.1807 63V21.0038H110.962V63H97.1807ZM128.408 43.9538C128.447 43.9946 128.742 44.4776 129.295 45.403C129.848 46.3283 130.567 47.5114 131.454 48.952C132.341 50.392 133.277 51.9199 134.262 53.536C135.247 55.1521 136.174 56.6803 137.043 58.1202C137.908 59.5602 138.894 61.1867 140 63H124.859C123.912 61.4621 123.055 60.0721 122.286 58.83C121.517 57.5878 120.7 56.2471 119.833 54.8077C118.965 53.3698 118.107 51.9699 117.259 50.6081C116.41 49.2464 115.681 48.0536 115.071 47.0297C114.459 46.0051 114.035 45.3149 113.799 44.9594C113.214 44.0771 112.868 43.058 112.794 42.0019C112.853 40.9883 113.179 40.0084 113.74 39.1619C113.976 38.7676 114.41 38.0675 115.041 37.062C115.672 36.0564 116.411 34.8637 117.259 33.4835C118.106 32.1034 118.965 30.6936 119.833 29.2543C120.702 27.815 121.519 26.4643 122.286 25.2025C123.056 23.9419 123.914 22.5421 124.859 21.0029H140L128.289 40.1082C127.926 40.6755 127.722 41.3292 127.697 42.0019C127.736 42.7081 127.983 43.3871 128.406 43.9538H128.408Z" fill="white"/>
<path d="M189.413 21.1887H156V26.3888H169.614V63.1443H175.856V26.3888H189.412L189.413 21.1887Z" fill="#D4EEFC"/>
<path d="M201.601 32.8008C200.489 33.0979 199.427 33.5558 198.45 34.1599C197.436 34.7895 196.498 35.533 195.656 36.3759C195.515 36.5157 195.378 36.6714 195.239 36.8182V32.4168L189.175 33.3031V63.1449H195.239V40.8197C195.69 40.5069 196.156 40.2173 196.637 39.9521C197.231 39.6258 197.846 39.3392 198.479 39.0942C199.094 38.8578 199.717 38.6511 200.352 38.4748C201.005 38.2935 201.671 38.1648 202.344 38.0897C203.065 38.0105 203.79 37.9907 204.514 38.0305L205.228 32.4758C204.009 32.3893 202.784 32.499 201.601 32.8008Z" fill="#D4EEFC"/>
<path d="M235.728 59.4211C235.293 59.4609 234.855 59.3958 234.451 59.2312C234.048 59.0665 233.69 58.8074 233.409 58.4757C232.857 57.5288 232.628 56.4304 232.755 55.3437L232.874 43.1707C232.887 41.8945 232.727 40.6225 232.398 39.3888C232.109 38.3068 231.626 37.2856 230.971 36.375C230.31 35.4845 229.47 34.74 228.504 34.1886C227.382 33.5551 226.169 33.0967 224.907 32.8295C223.364 32.4991 221.788 32.3408 220.21 32.3577C218.958 32.3569 217.707 32.4355 216.466 32.5931C215.292 32.7398 214.129 32.9669 212.987 33.2727C211.928 33.5582 210.886 33.9034 209.866 34.3068L209.152 39.3296C210.143 38.9751 211.084 38.6797 211.976 38.4433C212.868 38.207 213.73 38.0099 214.562 37.8523C215.377 37.697 216.201 37.5888 217.029 37.5283C217.841 37.4686 218.644 37.4387 219.438 37.4387C220.651 37.4131 221.861 37.5521 223.035 37.8523C223.892 38.0658 224.679 38.4929 225.323 39.0933C225.897 39.6776 226.307 40.4008 226.512 41.1911C226.767 42.1655 226.887 43.1697 226.87 44.1762L226.863 45.6535L219.913 46.1213C217.536 46.1877 215.194 46.7094 213.016 47.6578C211.387 48.3668 209.979 49.4998 208.944 50.9374C208.065 52.2168 207.598 53.7316 207.606 55.2807C207.595 56.7342 207.953 58.167 208.646 59.4467C209.374 60.7611 210.468 61.8385 211.797 62.5491C213.419 63.3876 215.232 63.7947 217.059 63.7309C218.771 63.7699 220.476 63.4893 222.084 62.9036C223.474 62.3631 224.745 61.5604 225.829 60.5399C226.24 60.1478 226.63 59.7347 226.998 59.302C227.114 59.9136 227.331 60.5017 227.642 61.0422C228.171 61.947 228.986 62.6532 229.96 63.0514C231.037 63.4811 232.189 63.6921 233.349 63.6719C233.706 63.6719 234.053 63.662 234.391 63.6423C234.721 63.6234 235.049 63.5739 235.371 63.4945C235.688 63.4158 235.974 63.3469 236.233 63.2878C236.466 63.2361 236.694 63.167 236.917 63.081L237.571 59.1218C237.243 59.2333 236.904 59.3124 236.56 59.3581C236.284 59.3965 236.006 59.4175 235.728 59.4211ZM226.817 55.8312C226.514 56.1692 226.182 56.4806 225.826 56.762C225.181 57.2683 224.483 57.7041 223.745 58.062C223.009 58.4177 222.23 58.676 221.427 58.8302C220.594 58.9901 219.748 59.0692 218.9 59.0666C217.931 59.0942 216.967 58.9127 216.075 58.5347C215.35 58.2219 214.738 57.6962 214.322 57.0279C213.91 56.3198 213.704 55.5116 213.728 54.6938C213.67 53.7086 213.942 52.7322 214.501 51.9164C215.148 51.1654 216.025 50.6464 216.998 50.4391C218.516 50.0838 220.075 49.9249 221.635 49.9663H226.841L226.817 55.8312Z" fill="#D4EEFC"/>
<path d="M258.111 19.0025C257.496 18.8843 256.872 18.7956 256.238 18.7365C255.604 18.6774 254.93 18.6478 254.217 18.6478C252.925 18.6396 251.64 18.8392 250.413 19.2388C249.246 19.6203 248.179 20.2563 247.291 21.1003C246.372 21.9892 245.662 23.0686 245.21 24.2617C244.685 25.6999 244.433 27.2228 244.467 28.7526V33.0074H240.008V37.6165H244.467V63.1445H250.531V37.6165H258.855V33.0074H250.531V28.1027C250.518 27.4286 250.629 26.7577 250.859 26.1231C251.053 25.5869 251.368 25.1017 251.779 24.7048C252.21 24.3113 252.731 24.0274 253.296 23.8776C253.963 23.6936 254.654 23.6041 255.346 23.6116C255.823 23.6116 256.277 23.6324 256.715 23.6708C257.153 23.7092 257.576 23.7692 257.993 23.848C258.41 23.9268 258.804 24.0056 259.182 24.0843C259.518 24.1508 259.846 24.2498 260.163 24.3799L259.925 19.4752C259.331 19.2783 258.725 19.1204 258.111 19.0025Z" fill="#D4EEFC"/>
<path d="M264.739 63.1449H270.803V32.4168L264.739 33.3031V63.1449Z" fill="#D4EEFC"/>
<path d="M269.942 20.0361C269.324 19.6613 268.614 19.4668 267.89 19.4747C267.158 19.4689 266.438 19.663 265.809 20.0361C265.189 20.397 264.669 20.9045 264.293 21.5134C263.916 22.1266 263.72 22.8333 263.729 23.5521C263.722 24.28 263.918 24.9955 264.293 25.6203C264.657 26.2384 265.18 26.7485 265.809 27.0977C266.444 27.4526 267.162 27.6359 267.89 27.6294C268.61 27.6379 269.318 27.4543 269.942 27.0977C270.553 26.7459 271.057 26.2351 271.398 25.6203C271.755 24.9892 271.94 24.2762 271.933 23.5521C271.942 22.8372 271.757 22.133 271.398 21.5134C271.045 20.9073 270.544 20.3993 269.942 20.0361Z" fill="#D4EEFC"/>
<path d="M305.94 33.0072H298.509L288.335 44.1166H286.142V18.5294L280.078 19.4158V63.1443H286.142V48.6667H286.242L298.389 63.1443H306.237L291.815 46.9924L305.94 33.0072Z" fill="#D4EEFC"/>
<path d="M323.028 46.837L337.153 32.8517H329.722L319.548 43.9611H317.355V18.375L311.291 19.2614V62.9899H317.355V48.5122H317.454L329.602 62.9899H337.45L323.028 46.837Z" fill="#D4EEFC"/>
</svg>

<svg xmlns="http://www.w3.org/2000/svg" viewBox="0 0 358 84"><path fill="#1767CE" d="M0 0h358v84H0z"/><path fill="#fff" d="M20 63V21.004h13.78V63H20Zm32.528-35.312L60.453 63h-15.08l-9.464-41.996h8.459a7.965 7.965 0 0 1 5.293 1.922 8.31 8.31 0 0 1 2.867 4.762ZM62.523 63V21.004h13.78V63h-13.78Zm24.189-26.026a8.213 8.213 0 0 1-4.228-1.124 8.336 8.336 0 0 1-3.046-3.046 8.206 8.206 0 0 1-1.125-4.229 8.056 8.056 0 0 1 1.125-4.2 8.437 8.437 0 0 1 3.046-3.016 8.233 8.233 0 0 1 4.228-1.124 8.083 8.083 0 0 1 4.199 1.124 8.504 8.504 0 0 1 3.016 3.016 8.075 8.075 0 0 1 1.125 4.2 8.226 8.226 0 0 1-1.125 4.23 8.4 8.4 0 0 1-3.016 3.045 8.059 8.059 0 0 1-4.201 1.124h.002ZM97.18 63V21.004h13.781V63H97.181Zm31.227-19.046c.039.04.334.524.887 1.449.553.925 1.272 2.108 2.159 3.549a1143.28 1143.28 0 0 1 5.589 9.168A854.89 854.89 0 0 0 140 63h-15.141c-.947-1.538-1.804-2.928-2.573-4.17a388.795 388.795 0 0 1-2.453-4.022 355.984 355.984 0 0 0-2.574-4.2 210.645 210.645 0 0 1-2.188-3.578 62.13 62.13 0 0 0-1.272-2.07 6.127 6.127 0 0 1-1.005-2.958 5.745 5.745 0 0 1 .946-2.84c.236-.394.67-1.094 1.301-2.1.631-1.006 1.37-2.198 2.218-3.578.847-1.38 1.706-2.79 2.574-4.23.869-1.439 1.686-2.79 2.453-4.052.77-1.26 1.628-2.66 2.573-4.2H140l-11.711 19.106a3.773 3.773 0 0 0-.592 1.894c.039.706.286 1.385.709 1.952h.002Z"/><path fill="#D4EEFC" d="M189.413 21.189H156v5.2h13.614v36.755h6.242V26.39h13.556l.001-5.2ZM201.601 32.8a11.768 11.768 0 0 0-3.151 1.36 15.522 15.522 0 0 0-2.794 2.216c-.141.14-.278.295-.417.442v-4.401l-6.064.886v29.842h6.064V40.82a15.281 15.281 0 0 1 3.24-1.725 20.493 20.493 0 0 1 1.873-.62c.653-.181 1.319-.31 1.992-.385.721-.08 1.446-.1 2.17-.06l.714-5.554a11.408 11.408 0 0 0-3.627.325ZM235.728 59.421a2.709 2.709 0 0 1-2.319-.945 5.052 5.052 0 0 1-.654-3.132l.119-12.173a14.118 14.118 0 0 0-.476-3.782 9.247 9.247 0 0 0-1.427-3.014 8.028 8.028 0 0 0-2.467-2.186 12.642 12.642 0 0 0-3.597-1.36 21.346 21.346 0 0 0-4.697-.471c-1.252-.001-2.503.078-3.744.235a25.84 25.84 0 0 0-3.479.68 29.04 29.04 0 0 0-3.121 1.034l-.714 5.023a35.145 35.145 0 0 1 5.41-1.478 21.585 21.585 0 0 1 2.467-.324c.812-.06 1.615-.09 2.409-.09a13.38 13.38 0 0 1 3.597.414c.857.214 1.644.64 2.288 1.241a4.666 4.666 0 0 1 1.189 2.098c.255.974.375 1.979.358 2.985l-.007 1.477-6.95.468a18.577 18.577 0 0 0-6.897 1.537 9.87 9.87 0 0 0-4.072 3.28 7.6 7.6 0 0 0-1.338 4.343 8.611 8.611 0 0 0 1.04 4.166 7.81 7.81 0 0 0 3.151 3.102 10.651 10.651 0 0 0 5.262 1.182 13.77 13.77 0 0 0 5.025-.827 11.591 11.591 0 0 0 3.745-2.364c.411-.392.801-.805 1.169-1.238.116.612.333 1.2.644 1.74a4.778 4.778 0 0 0 2.318 2.01c1.077.43 2.229.64 3.389.62.357 0 .704-.01 1.042-.03.33-.019.658-.068.98-.148.317-.078.603-.147.862-.206a4.77 4.77 0 0 0 .684-.207l.654-3.96a5.32 5.32 0 0 1-1.011.237c-.276.039-.554.06-.832.063Zm-8.911-3.59a7.96 7.96 0 0 1-.991.931c-.645.506-1.343.942-2.081 1.3a9.4 9.4 0 0 1-2.318.768c-.833.16-1.679.24-2.527.237a6.75 6.75 0 0 1-2.825-.532 3.87 3.87 0 0 1-1.753-1.507 4.385 4.385 0 0 1-.594-2.334 4.45 4.45 0 0 1 .773-2.778 4.545 4.545 0 0 1 2.497-1.477 18.228 18.228 0 0 1 4.637-.473h5.206l-.024 5.865ZM258.111 19.003a19.509 19.509 0 0 0-1.873-.267 21.817 21.817 0 0 0-2.021-.088 12.04 12.04 0 0 0-3.804.59 8.255 8.255 0 0 0-3.122 1.862 8.672 8.672 0 0 0-2.081 3.162 12.3 12.3 0 0 0-.743 4.49v4.255h-4.459v4.61h4.459v25.528h6.064V37.615h8.324v-4.609h-8.324v-4.904a5.498 5.498 0 0 1 .328-1.98 3.743 3.743 0 0 1 .92-1.418 3.63 3.63 0 0 1 1.517-.827 7.412 7.412 0 0 1 2.05-.266c.477 0 .931.02 1.369.059.438.038.861.098 1.278.177.417.079.811.158 1.189.236.336.067.664.166.981.296l-.238-4.905a14.39 14.39 0 0 0-1.814-.473ZM264.739 63.145h6.064V32.417l-6.064.886v29.842ZM269.942 20.036a3.873 3.873 0 0 0-2.052-.561 4.018 4.018 0 0 0-2.081.561c-.62.361-1.14.868-1.516 1.477a3.802 3.802 0 0 0-.564 2.04 3.946 3.946 0 0 0 .564 2.067 4.027 4.027 0 0 0 1.516 1.478 4.19 4.19 0 0 0 2.081.531 4.038 4.038 0 0 0 2.052-.531 3.876 3.876 0 0 0 1.456-1.478 4.12 4.12 0 0 0 .535-2.068 3.967 3.967 0 0 0-.535-2.039 4.188 4.188 0 0 0-1.456-1.477ZM305.94 33.007h-7.431l-10.174 11.11h-2.193V18.529l-6.064.887v43.728h6.064V48.667h.1l12.147 14.477h7.848l-14.422-16.152 14.125-13.985ZM323.028 46.837l14.125-13.985h-7.431l-10.174 11.11h-2.193V18.374l-6.064.886V62.99h6.064V48.512h.099l12.148 14.478h7.848l-14.422-16.153Z"/></svg>
